assets/img/braze_icons/file-x-02.svg

<svg fill="none" height="24" viewBox="0 0 24 24" width="24" xmlns="http://www.w3.org/2000/svg"><g fill="#801ed7"><path clip-rule="evenodd" d="m15.2413 1h-6.4826c-.80495-.000012-1.46934-.000021-2.01052.0442-.5621.04592-1.0788.14448-1.56414.39178-.75265.38349-1.36457.99541-1.74806 1.74806-.2473.48534-.34586 1.00204-.39178 1.56414-.04422.54118-.04421 1.20555-.0442 2.01051v10.48261c-.00001.805-.00002 1.4693.0442 2.0105.04592.5621.14448 1.0788.39178 1.5642.38349.7526.99541 1.3645 1.74806 1.748.48534.2473 1.00204.3459 1.56414.3918.54119.0442 1.20554.0442 2.0105.0442h4.28172c.3706 0 .5559 0 .6609-.052.1154-.0573.1559-.0963.2174-.2096.0558-.103.065-.3518.0833-.8495.0269-.7303.3192-1.4527.8767-2.0102l.3787-.3787-.3787-.3787c-1.1716-1.1716-1.1716-3.071 0-4.2426s3.071-1.1716 4.2426 0l.3787.3787.3787-.3787c.1863-.1864.3911-.3431.6084-.4701.2222-.1299.3333-.1949.3858-.2536.0549-.0616.0775-.1009.1029-.1795.0242-.0749.0242-.1735.0242-.3708v-6.84602c0-.80496 0-1.46931-.0442-2.0105-.0459-.5621-.1445-1.0788-.3918-1.56414-.3835-.75265-.9954-1.36457-1.748-1.74806-.4854-.2473-1.0021-.34586-1.5642-.39178-.5412-.044221-1.2055-.044212-2.0105-.0442zm-8.2413 4c-.55228 0-1 .44772-1 1 0 .55229.44772 1 1 1h9c.5523 0 1-.44771 1-1 0-.55228-.4477-1-1-1zm-1 5c0-.55229.44772-1 1-1h6c.5523 0 1 .44771 1 1 0 .5523-.4477 1-1 1h-6c-.55228 0-1-.4477-1-1zm0 4c0-.5523.44772-1 1-1h2c.55229 0 1 .4477 1 1s-.44771 1-1 1h-2c-.55228 0-1-.4477-1-1z" fill-rule="evenodd"/><path d="m16.2929 17.7071c-.3905-.3905-.3905-1.0237 0-1.4142s1.0237-.3905 1.4142 0l1.7929 1.7929 1.7929-1.7929c.3905-.3905 1.0237-.3905 1.4142 0s.3905 1.0237 0 1.4142l-1.7929 1.7929 1.7929 1.7929c.3905.3905.3905 1.0237 0 1.4142s-1.0237.3905-1.4142 0l-1.7929-1.7929-1.7929 1.7929c-.3905.3905-1.0237.3905-1.4142 0s-.3905-1.0237 0-1.4142l1.7929-1.7929z"/></g></svg>

<svg width="24" height="24" viewBox="0 0 24 24" fill="none" xmlns="http://www.w3.org/2000/svg">
<path fill-rule="evenodd" clip-rule="evenodd" d="M15.2413 1H8.7587C7.95375 0.999988 7.28936 0.999979 6.74818 1.0442C6.18608 1.09012 5.66938 1.18868 5.18404 1.43598C4.43139 1.81947 3.81947 2.43139 3.43598 3.18404C3.18868 3.66938 3.09012 4.18608 3.0442 4.74818C2.99998 5.28936 2.99999 5.95373 3 6.75869V17.2413C2.99999 18.0463 2.99998 18.7106 3.0442 19.2518C3.09012 19.8139 3.18868 20.3306 3.43598 20.816C3.81947 21.5686 4.43139 22.1805 5.18404 22.564C5.66938 22.8113 6.18608 22.9099 6.74818 22.9558C7.28937 23 7.95372 23 8.75868 23H13.0404C13.411 23 13.5963 23 13.7013 22.948C13.8167 22.8907 13.8572 22.8517 13.9187 22.7384C13.9745 22.6354 13.9837 22.3866 14.002 21.8889C14.0289 21.1586 14.3212 20.4362 14.8787 19.8787L15.2574 19.5L14.8787 19.1213C13.7071 17.9497 13.7071 16.0503 14.8787 14.8787C16.0503 13.7071 17.9497 13.7071 19.1213 14.8787L19.5 15.2574L19.8787 14.8787C20.065 14.6923 20.2698 14.5356 20.4871 14.4086C20.7093 14.2787 20.8204 14.2137 20.8729 14.155C20.9278 14.0934 20.9504 14.0541 20.9758 13.9755C21 13.9006 21 13.802 21 13.6047V6.75868C21 5.95372 21 5.28937 20.9558 4.74818C20.9099 4.18608 20.8113 3.66938 20.564 3.18404C20.1805 2.43139 19.5686 1.81947 18.816 1.43598C18.3306 1.18868 17.8139 1.09012 17.2518 1.0442C16.7106 0.999979 16.0463 0.999988 15.2413 1ZM7 5C6.44772 5 6 5.44772 6 6C6 6.55229 6.44772 7 7 7H16C16.5523 7 17 6.55229 17 6C17 5.44772 16.5523 5 16 5H7ZM6 10C6 9.44771 6.44772 9 7 9H13C13.5523 9 14 9.44771 14 10C14 10.5523 13.5523 11 13 11H7C6.44772 11 6 10.5523 6 10ZM6 14C6 13.4477 6.44772 13 7 13H9C9.55229 13 10 13.4477 10 14C10 14.5523 9.55229 15 9 15H7C6.44772 15 6 14.5523 6 14Z" fill="#801ED7"/>
<path d="M16.2929 17.7071C15.9024 17.3166 15.9024 16.6834 16.2929 16.2929C16.6834 15.9024 17.3166 15.9024 17.7071 16.2929L19.5 18.0858L21.2929 16.2929C21.6834 15.9024 22.3166 15.9024 22.7071 16.2929C23.0976 16.6834 23.0976 17.3166 22.7071 17.7071L20.9142 19.5L22.7071 21.2929C23.0976 21.6834 23.0976 22.3166 22.7071 22.7071C22.3166 23.0976 21.6834 23.0976 21.2929 22.7071L19.5 20.9142L17.7071 22.7071C17.3166 23.0976 16.6834 23.0976 16.2929 22.7071C15.9024 22.3166 15.9024 21.6834 16.2929 21.2929L18.0858 19.5L16.2929 17.7071Z" fill="#801ED7"/>
</svg>
